favicon-x1.svg

<svg width="128" height="128" viewBox="0 0 128 128" fill="none" xmlns="http://www.w3.org/2000/svg">
<path d="M85 54L94.5652 63.5652M94.5652 54L85 63.5652" stroke="#E1E1E1" stroke-width="2"/>
<path d="M64.8303 14C83.6565 14 96.5334 24 102.533 32C87.903 32 77.2394 30.1464 70.4103 36.9854C63.5812 43.8246 64.8303 54.0128 64.8303 59.3047C64.8303 64.5964 64.9261 69.4345 63.2365 74.4492C61.5468 79.464 60.3959 80.5595 56.0627 84.0146C51.7293 87.4699 43.7435 86 19.0334 86C15.2418 78.5253 14.0334 72.4632 14.0334 63.5C13.0334 40.5001 34.6079 14.0001 64.8303 14ZM48.4992 65.0107C48.0253 65.0107 47.619 65.1775 47.2804 65.5107C46.9419 65.844 46.7753 66.2452 46.7804 66.7139C46.7752 67.193 46.9419 67.5993 47.2804 67.9326C47.619 68.2659 48.0253 68.4326 48.4992 68.4326C48.8064 68.4326 49.0878 68.3571 49.3429 68.2061C49.6033 68.0498 49.8117 67.8414 49.9679 67.5811C50.1293 67.3207 50.2127 67.0315 50.2179 66.7139C50.2127 66.2452 50.0382 65.844 49.6945 65.5107C49.356 65.1775 48.9574 65.0108 48.4992 65.0107ZM54.8801 65.0107C54.4062 65.0107 53.9998 65.1775 53.6613 65.5107C53.3228 65.844 53.1561 66.2452 53.1613 66.7139C53.1561 67.193 53.3228 67.5993 53.6613 67.9326C53.9998 68.2659 54.4061 68.4326 54.8801 68.4326C55.1873 68.4326 55.4687 68.3571 55.7238 68.2061C55.9841 68.0498 56.1926 67.8414 56.3488 67.5811C56.5102 67.3207 56.5936 67.0315 56.5988 66.7139C56.5936 66.2452 56.4191 65.844 56.0754 65.5107C55.7369 65.1775 55.3383 65.0108 54.8801 65.0107ZM19.8332 52.2607V54.6904H28.0832L19.8801 66.4561V68.2607H31.7238V65.8311H23.4816L31.6769 54.0654V52.2607H19.8332ZM34.4504 56.2607V58.6045H40.4347V58.7061L34.2472 66.4639V68.2607H44.0988V65.917H38.0051V65.8154L43.8957 58.1904V56.2607H34.4504Z" fill="#E1E1E1"/>
<circle cx="64" cy="64" r="50" stroke="#E1E1E1" stroke-width="8"/>
</svg>

<svg xmlns="http://www.w3.org/2000/svg" width="128" height="128" fill="none"><path stroke="#E1E1E1" stroke-width="2" d="m85 54 9.565 9.565m0-9.565L85 63.565"/><path fill="#E1E1E1" d="M64.83 14c18.826 0 31.703 10 37.703 18-14.63 0-25.294-1.854-32.123 4.985-6.829 6.84-5.58 17.028-5.58 22.32 0 5.291.096 10.13-1.593 15.144-1.69 5.015-2.841 6.11-7.174 9.566C51.729 87.47 43.743 86 19.033 86c-3.791-7.475-5-13.537-5-22.5-1-23 20.575-49.5 50.797-49.5ZM48.5 65.01c-.475 0-.881.167-1.22.5a1.602 1.602 0 0 0-.5 1.204c-.005.479.162.885.5 1.219.339.333.745.5 1.22.5.306 0 .588-.076.843-.227.26-.156.469-.365.625-.625a1.643 1.643 0 0 0-.273-2.07 1.65 1.65 0 0 0-1.196-.5Zm6.38 0c-.474 0-.88.167-1.219.5a1.601 1.601 0 0 0-.5 1.204c-.005.479.162.885.5 1.219.339.333.745.5 1.22.5.306 0 .588-.076.843-.227.26-.156.469-.365.625-.625a1.643 1.643 0 0 0-.273-2.07 1.65 1.65 0 0 0-1.196-.5ZM19.833 52.26v2.43h8.25L19.88 66.456v1.805h11.844v-2.43h-8.242l8.195-11.766v-1.804H19.833Zm14.617 4v2.345h5.985v.101l-6.188 7.758v1.797H44.1v-2.344h-6.094v-.102l5.89-7.625v-1.93H34.45Z"/><circle cx="64" cy="64" r="50" stroke="#E1E1E1" stroke-width="8"/></svg>
